Suru++-Ubuntu/apps/symbolic/comix-symbolic.svg

<svg width="16" height="16" version="1.1" xmlns="http://www.w3.org/2000/svg">
 <g transform="translate(-312,-467.21933)">
  <g transform="matrix(.28455811 0 0 .28455811 306.34121 461.92639)" style="enable-background:new">
   <path transform="matrix(3.5142207,0,0,3.5142207,19.886237,18.600559)" d="m7.78125 0.50390625a7.5000328 7.5000328 0 0 0-7.28125 7.4960938 7.5000328 7.5000328 0 0 0 15 0 7.5000328 7.5000328 0 0 0-7.71875-7.4960938zm-3.9628906 6.765625a0.91465111 0.91465105 0 0 1 0.8886718 0.9140626 0.91465111 0.91465105 0 0 1-1.828125 0 0.91465111 0.91465105 0 0 1 0.9394532-0.9140626zm8.4160156 0a0.91465111 0.91465105 0 0 1 0.886719 0.9140626 0.91465111 0.91465105 0 0 1-1.828125 0 0.91465111 0.91465105 0 0 1 0.941406-0.9140626zm-7.9550781 3.7363278c0.0757491 0.728527 0.3611426 1.359337 0.7773437 1.929688-0.6778239-0.296559-1.2101282-0.984914-1.703125-1.785156l0.9257813-0.144532zm7.3339841 0.023438 0.949219 0.119141c-0.48014 0.833098-1.003588 1.554056-1.6875 1.876953 0.409472-0.596012 0.682023-1.248319 0.738281-1.996094z" style="fill:#808080"/>
   <g transform="matrix(-4.1673404,2.1084133,2.1084133,4.1673404,994.95756,-1354.1937)" style="fill:#4f4f4f">
    <path d="m317.56868 170.64923c-0.50716 0.60775 0.94601 1.4143 1.34518 0.64672 0.44663-0.85884-0.0474-2.02942-0.56597-2.54579-0.11396-0.11371-0.36282 0.013-0.33031 0.15591 0.1368 0.60141-0.11676 1.34518-0.4489 1.74316z" style="fill:#4f4f4f"/>
   </g>
   <g transform="matrix(4.1954244,1.7411202,-1.7411202,4.1954244,-970.3241,-1241.5504)" style="fill:#4f4f4f">
    <path d="m317.45948 170.57723c-0.5499 0.62574 0.98217 1.41858 1.41991 0.63253 0.48978-0.87949-0.0158-2.05871-0.55861-2.5736-0.11928-0.11337-0.38617 0.0197-0.35403 0.16407 0.13528 0.60793-0.14716 1.36724-0.50727 1.777z" style="fill:#4f4f4f"/>
   </g>
  </g>
 </g>
</svg>

<svg xmlns="http://www.w3.org/2000/svg" width="16" height="16" version="1.1">
 <g transform="translate(-312,-467.21933)">
  <g style="enable-background:new" transform="matrix(0.28455811,0,0,0.28455811,306.34121,461.92639)">
   <path style="fill:#808080" d="M 7.78125 0.50390625 A 7.5000328 7.5000328 0 0 0 0.5 8 A 7.5000328 7.5000328 0 0 0 15.5 8 A 7.5000328 7.5000328 0 0 0 7.78125 0.50390625 z M 3.8183594 7.2695312 A 0.91465111 0.91465105 0 0 1 4.7070312 8.1835938 A 0.91465111 0.91465105 0 0 1 2.8789062 8.1835938 A 0.91465111 0.91465105 0 0 1 3.8183594 7.2695312 z M 12.234375 7.2695312 A 0.91465111 0.91465105 0 0 1 13.121094 8.1835938 A 0.91465111 0.91465105 0 0 1 11.292969 8.1835938 A 0.91465111 0.91465105 0 0 1 12.234375 7.2695312 z M 4.2792969 11.005859 C 4.355046 11.734386 4.6404395 12.365196 5.0566406 12.935547 C 4.3788167 12.638988 3.8465124 11.950633 3.3535156 11.150391 L 4.2792969 11.005859 z M 11.613281 11.029297 L 12.5625 11.148438 C 12.08236 11.981536 11.558912 12.702494 10.875 13.025391 C 11.284472 12.429379 11.557023 11.777072 11.613281 11.029297 z" transform="matrix(3.5142207,0,0,3.5142207,19.886237,18.600559)"/>
   <g style="fill:#4f4f4f" transform="matrix(-4.1673404,2.1084133,2.1084133,4.1673404,994.95756,-1354.1937)">
    <path style="fill:#4f4f4f" d="m 317.56868,170.64923 c -0.50716,0.60775 0.94601,1.4143 1.34518,0.64672 0.44663,-0.85884 -0.0474,-2.02942 -0.56597,-2.54579 -0.11396,-0.11371 -0.36282,0.013 -0.33031,0.15591 0.1368,0.60141 -0.11676,1.34518 -0.4489,1.74316 z"/>
   </g>
   <g style="fill:#4f4f4f" transform="matrix(4.1954244,1.7411202,-1.7411202,4.1954244,-970.3241,-1241.5504)">
    <path style="fill:#4f4f4f" d="m 317.45948,170.57723 c -0.5499,0.62574 0.98217,1.41858 1.41991,0.63253 0.48978,-0.87949 -0.0158,-2.05871 -0.55861,-2.5736 -0.11928,-0.11337 -0.38617,0.0197 -0.35403,0.16407 0.13528,0.60793 -0.14716,1.36724 -0.50727,1.777 z"/>
   </g>
  </g>
 </g>
</svg>
